X:1
T:Sail On!
T:Sail On!
T:Charles H. Gabriel & Homer A. Rodeheaver
T:Charles Hutchinson Gabriel, 1908
T:Public Domain Courtesy of the Cyber Hymnal™
T:Public Domain Courtesy of the Cyber Hymnal™
C:Charles H. Gabriel & Homer A. Rodeheaver
Z:Public Domain
Z:Courtesy of the Cyber Hymnal™
%%score ( 1 2 ) ( 3 4 )
L:1/8
Q:1/4=100
M:4/4
K:Eb
V:1 treble 
V:2 treble 
V:3 bass 
V:4 bass 
V:1
 [EG]2 | [GB]3 [^F=A] [GB][Ge][_Ad][Ac] | [GB]6 [EG]2 | [DB]3 [DF] [DB][DF][EG][FA] | [EG]6 [EG]2 | %5
w: 1.~Up-|on a wide and storm- y|sea, Thou’rt|sail- ing to e- ter- ni-|ty, And|
w: 2.~Art|far from shore, and wear- y|worn, The|sky o’er- cast, thy can- vas|torn? Hark|
w: 3.~Do|com- rades trem- ble and re-|fuse To|fur- ther dare the taunt- ing|hues? No|
w: 4.~Do|snarl- ing waves thy craft as-|sail? Art|power- less, drift- ing with the|gale? Take|
 [EG]3 [^F=A] [GB][Ge][_Ad][Ac] | [GB]6 [GB]2 | [Fd]3 [DF] [Ec]3 [EF] | [DB]6- [DB] || %9
w: thy great Ad- miral or- ders|thee: “Sail|on! Sail on! Sail|on!” *|
w: ye! a voice to thee is|borne: “Sail|on! Sail on! Sail|on!” *|
w: other course is thine to choose,|“Sail on!|Sail on! Sail on!”||
w: heart! God’s Word shall ne- ver|fail. “Sail|on! Sail on! Sail|on!” *|
"^Refrain" [AB] | e2 d2 [Ge]3 [GB] | [Ac]>[ce] [Bd]>[Ac] [GB]3 [Ge] | %12
w: |||
w: Sail|on! Sail on! The|storms will soon be past, The|
w: |||
w: |||
 [Fd]2 [DF]2 [FA]>[Ac] [GB]>[FA] | [EG]6- [EG][EB] | c6 [Ff]2 | f4- [Bf]2 [Be]2 | %16
w: ||||
w: dark- ness will not al- ways|last; * Sail|on! Sail|on! God lives|
w: ||||
w: ||||
 [Ad]3 [Ad] [Ad]>[AB] [Ac]>[Ad] | [Ge]2 [Ae]2 e4- | e8- | [Ge]6 |] %20
w: ||||
w: * and He com- mands: “Sail|on! Sail on!”|||
w: ||||
w: ||||
V:2
 x2 | x8 | x8 | x8 | x8 | x8 | x8 | x8 | x7 || x | (GE) (FA) x4 | x8 | x8 | x8 | (E2 =E2 F2) x2 | %15
 B2 =A2 x4 | x8 | x4 G2 A2 | G2 A2 G2 A2 | x6 |] %20
V:3
 [E,B,]2 | [E,E]3 [E,E] [E,E][E,B,][E,C][E,D] | [E,E]6 [E,B,]2 | %3
w: ~|~ ~ ~ ~ ~ ~|~ ~|
 [B,,B,]3 [B,,B,] [B,,F,][B,,B,][B,,B,][B,,B,] | [E,B,]6 [E,B,]2 | %5
w: ~ ~ ~ ~ ~ ~|~ ~|
 [E,E]3 [E,E] [E,E][E,B,][E,C][E,D] | [E,E]6 [E,E]2 | [F,B,]3 [F,B,] [F,=A,]3 [F,A,] | %8
w: ~ ~ ~ ~ ~ ~|~ ~|~ ~ ~ ~|
 [B,,B,]6- [B,,B,] || B, | B,2 B,2 [E,B,]3 [E,E] | [A,E]>[A,E] [A,E]>[A,E] [E,E]3 [E,B,] | %12
w: ~ *|~|~ ~ ~ ~|~ ~ ~ ~ ~ ~|
 [B,,B,]2 [B,,B,]2 [B,,B,]>[B,,B,] [B,,B,]>[B,,B,] | [E,B,]6- [E,B,][E,G,] | %14
w: ~ ~ ~ ~ ~ ~|~ * ~|
 A,2 [G,B,]2 [F,_A,]2 (3([F,=A,][G,B,][A,C]) | [B,D]2 [CE]2 [DF]2 [CF]2 | %16
w: ~ sail on! ~ * *|~ sail on! ~|
 [B,F]3 [B,F] [B,F]>[B,D] [B,D]>B, | [E,B,]2 [A,,C]2 B,2 C2 | B,2 C2 B,2 C2 | [E,B,]6 |] %20
w: ~ ~ ~ ~ ~ ~|~ ~ ~ sail~on!|sail on! sail~on! *||
V:4
 x2 | x8 | x8 | x8 | x8 | x8 | x8 | x8 | x7 || B, | (E,G,) (B,B,,) x4 | x8 | x8 | x8 | =A,2 x6 | %15
 x8 | x15/2 B,/ | x4 E,4- | E,8- | x6 |] %20

